!!!COM: johnny-cash
!!!OTL: i-walk-the-line
!!!RNB: hooktheoryid: AROmNJAEmNw
**kern	**text
*clefG2	*
*k[f#c#]	*
*M4/4	*
=1	=1
4e	A
8e	.
4e	.
8e	.
8f#	.
8f#	.
=2	=2
4d	D
4.r	.
8d	.
8d	.
8d	.
=3	=3
4e	A
4e	.
8e	.
8e	.
8f#	.
8e	.
=4	=4
4d	D
4.r	.
8d	.
8e	.
8f#	.
=5	=5
8g	G
4g	.
4g	.
8b	.
8a	.
8g	.
=6	=6
4f#	D
4.r	.
8d	.
8c#	.
8B	.
=7	=7
4A	A
4.r	.
8e	.
8d	.
8c#	.
=8	=8
4d	D
2.r	.
*-	*-